images/insta-icon.svg

<svg width="25" height="25" viewBox="0 0 25 25" fill="none" xmlns="http://www.w3.org/2000/svg">
<g clip-path="url(#clip0_1_320)">
<path d="M1.56244 1.70122C-0.40214 3.74185 -5.69224e-05 5.90956 -5.69224e-05 12.495C-5.69224e-05 17.9637 -0.954224 23.446 4.03953 24.7366C5.5989 25.1377 19.4156 25.1377 20.9729 24.7346C23.052 24.1981 24.7437 22.5116 24.9749 19.571C25.0072 19.1606 25.0072 5.83664 24.9739 5.41789C24.7281 2.2856 22.7999 0.480389 20.2593 0.114764C19.677 0.0303889 19.5604 0.00538891 16.5729 0.000180572C5.97598 0.00538891 3.65307 -0.466486 1.56244 1.70122Z" fill="url(#paint0_linear_1_320)"/>
<path d="M12.4979 3.26965C8.71563 3.26965 5.12397 2.93319 3.75209 6.45403C3.18543 7.90819 3.26772 9.79674 3.26772 12.5009C3.26772 14.8738 3.19168 17.104 3.75209 18.5467C5.12084 22.0697 8.74167 21.7322 12.4958 21.7322C16.1177 21.7322 19.8521 22.1092 21.2406 18.5467C21.8083 17.078 21.725 15.2176 21.725 12.5009C21.725 8.89465 21.924 6.56653 20.175 4.81861C18.4042 3.04778 16.0094 3.26965 12.4938 3.26965H12.4979ZM11.6708 4.93319C19.5604 4.92069 20.5646 4.04361 20.0104 16.228C19.8135 20.5374 16.5323 20.0644 12.499 20.0644C5.1448 20.0644 4.93334 19.854 4.93334 12.4967C4.93334 5.05403 5.51668 4.93736 11.6708 4.93111V4.93319ZM17.425 6.46548C16.8135 6.46548 16.3177 6.96132 16.3177 7.57278C16.3177 8.18424 16.8135 8.68007 17.425 8.68007C18.0365 8.68007 18.5323 8.18424 18.5323 7.57278C18.5323 6.96132 18.0365 6.46548 17.425 6.46548ZM12.4979 7.76028C9.88022 7.76028 7.75834 9.88319 7.75834 12.5009C7.75834 15.1186 9.88022 17.2405 12.4979 17.2405C15.1156 17.2405 17.2365 15.1186 17.2365 12.5009C17.2365 9.88319 15.1156 7.76028 12.4979 7.76028ZM12.4979 9.42382C16.5656 9.42382 16.5708 15.578 12.4979 15.578C8.43126 15.578 8.42501 9.42382 12.4979 9.42382Z" fill="white"/>
</g>
<defs>
<linearGradient id="paint0_linear_1_320" x1="1.61038" y1="23.4034" x2="24.8452" y2="3.29391" gradientUnits="userSpaceOnUse">
<stop stop-color="#FFDD55"/>
<stop offset="0.5" stop-color="#FF543E"/>
<stop offset="1" stop-color="#C837AB"/>
</linearGradient>
<clipPath id="clip0_1_320">
<rect width="25" height="25" fill="white"/>
</clipPath>
</defs>
</svg>

<svg width="25" height="25" fill="none" xmlns="http://www.w3.org/2000/svg"><g clip-path="url(#a)"><path d="M1.562 1.701C-.402 3.741 0 5.91 0 12.495c0 5.469-.954 10.951 4.04 12.242 1.559.4 15.376.4 16.933-.002 2.079-.537 3.77-2.223 4.002-5.164.032-.41.032-13.734-.001-14.153C24.728 2.286 22.8.48 20.259.115 19.677.03 19.56.005 16.573 0 5.976.005 3.653-.466 1.563 1.701Z" fill="url(#b)"/><path d="M12.498 3.27c-3.782 0-7.374-.337-8.746 3.184-.567 1.454-.484 3.343-.484 6.047 0 2.373-.076 4.603.484 6.046 1.369 3.523 4.99 3.185 8.744 3.185 3.622 0 7.356.377 8.745-3.185.567-1.469.484-3.33.484-6.046 0-3.606.199-5.934-1.55-7.682-1.77-1.771-4.166-1.55-7.681-1.55h.004Zm-.827 1.663c7.89-.012 8.894-.89 8.34 11.295-.197 4.31-3.479 3.836-7.512 3.836-7.354 0-7.566-.21-7.566-7.567 0-7.443.584-7.56 6.738-7.566v.002Zm5.754 1.532a1.107 1.107 0 1 0 0 2.215 1.107 1.107 0 0 0 0-2.215ZM12.498 7.76a4.74 4.74 0 1 0 .001 9.48 4.74 4.74 0 0 0-.001-9.48Zm0 1.664c4.068 0 4.073 6.154 0 6.154-4.067 0-4.073-6.154 0-6.154Z" fill="#fff"/></g><defs><linearGradient id="b" x1="1.61" y1="23.403" x2="24.845" y2="3.294" gradientUnits="userSpaceOnUse"><stop stop-color="#FD5"/><stop offset=".5" stop-color="#FF543E"/><stop offset="1" stop-color="#C837AB"/></linearGradient><clipPath id="a"><path fill="#fff" d="M0 0h25v25H0z"/></clipPath></defs></svg>
